!!!!SEGMENT: pl-kk--kk-i-83--004_anerio-giovanni-francesco--missa-pulchra-es-sanctus.krn
!!!cenid: 16xx:1343
!!!COM: Anerio, Giovanni Francesco
!!!COM-rismid: pe30000104
!!!CDT: 1569/07/07-1630/06/11
!!!CNT: Italian
!!!OPR: Missa pulchra es
!!!OTL: Sanctus
!!!OMV: 004
!!!PDT:
!!!AGN: Sacred; Mass
!!!SMS-siglum: PL-Kk
!!!SMS-shelfmark: Kk.I.83
!!!SMS-shelfwork: 001-004 M
!!!SMS-variant:
!!!SMS-altvar:
!!!NIFC-rismid: 1001151647
!!!URL-scan: http://repozytorium.nifc.pl/skany/pl-kk-nut--i-83
!!!ONB-nifc: UWAGA: części Mszy: 1. Kyrie, 2. Et in terra, 3. Patrem, 4. Sanctus, 5. Benedictus, 6. Agnus Dei
!!!key:
**kern	**text	**kern	**text	**kern	**text	**kern	**text	**kern	**text	**kern	**text	**kern	**text	**kern	**text
*part8	*part8	*part7	*part7	*part6	*part6	*part5	*part5	*part4	*part4	*part3	*part3	*part2	*part2	*part1	*part1
*staff8	*staff8	*staff7	*staff7	*staff6	*staff6	*staff5	*staff5	*staff4	*staff4	*staff3	*staff3	*staff2	*staff2	*staff1	*staff1
*Iempty	*	*Itenor	*	*Ialto	*	*Ivox	*	*Iempty	*	*Itenor	*	*Ialto	*	*Ivox	*
*I"Baſsus II.	*	*I"Tenor 2.	*	*I"Altus 2.	*	*I"Cantus 2.	*	*I"Baſsus I.	*	*I"Tenor I.	*	*I"Altus I.	*	*I"Cantus I	*
*I'B 2	*	*I'T 2	*	*I'A 2	*	*I'S 2	*	*I'B 1	*	*I'T 1	*	*I'A 1	*	*I'S 1	*
*clefF4	*	*clefC4	*	*clefC3	*	*clefC1	*	*clefF4	*	*clefC4	*	*clefC3	*	*clefC1	*
*k[]	*	*k[]	*	*k[]	*	*k[]	*	*k[]	*	*k[]	*	*k[]	*	*k[]	*
*C:	*	*C:	*	*C:	*	*C:	*	*C:	*	*C:	*	*C:	*	*C:	*
*M2/2	*	*M2/2	*	*M2/2	*	*M2/2	*	*M2/2	*	*M2/2	*	*M2/2	*	*M2/2	*
*met(c|)	*	*met(c|)	*	*met(c|)	*	*met(c|)	*	*met(c|)	*	*met(c|)	*	*met(c|)	*	*met(c|)	*
*all\right	*	*all\right	*	*all\right	*	*all\right	*	*all\right	*	*all\right	*	*all\right	*	*all\right	*
*2\right	*	*2\right	*	*2\right	*	*2\right	*	*2\right	*	*2\right	*	*2\right	*	*2\right	*
!!LO:TX:t=P:problem:w paru taktach błędne wyświetlanie z uwagi na różne rozmieszczenie kresek pseudotaktowych w poszczególnych księgach głosowych
!	!	!	!	!	!	!	!	!	!	!	!	!	!	!LO:TX:t=P:problem=w źródle kolejność głosów SSAATTBB, \nukładam według logiki kompozycji na dwa chóry.	!
00r	.	00r	.	00r	.	00r	.	2r	.	1E	San-	00r	.	00r	.
.	.	.	.	.	.	.	.	1E	San-	.	.	.	.	.	.
!	!	!	!	!	!	!	!	!	!	!LO:TX:t=P:problem=kreska pseudotaktowa	!	!	!	!	!
.	.	.	.	.	.	.	.	.	.	1G	-ctus	.	.	.	.
!	!	!	!	!	!	!	!	!LO:TX:t=P:problem=kreska pseudotaktowa	!	!	!	!	!	!	!
.	.	.	.	.	.	.	.	2E\	-ctus	.	.	.	.	.	.
=1-	=1-	=1-	=1-	=1-	=1-	=1-	=1-	=1-	=1-	=1	=1-	=1-	=1-	=1-	=1-
*	*	*	*	*	*	*	*	*	*ij	*	*ij	*	*	*	*
.	.	.	.	.	.	.	.	2D/	San-	1A	San-	.	.	.	.
.	.	.	.	.	.	.	.	4C/	.	.	.	.	.	.	.
!	!	!	!	!	!	!	!	!LO:TX:t=P:problem=kreska pseudotaktowa	!	!	!	!	!	!	!
.	.	.	.	.	.	.	.	4BB/	.	.	.	.	.	.	.
.	.	.	.	.	.	.	.	4AA/	.	1.c	.	.	.	.	.
.	.	.	.	.	.	.	.	4BB/	.	.	.	.	.	.	.
.	.	.	.	.	.	.	.	4C/	-ctus	.	.	.	.	.	.
!	!	!	!	!	!	!	!	!LO:TX:t=P:problem=kreska pseudotaktowa	!	!	!	!	!	!	!
.	.	.	.	.	.	.	.	4D/	.	.	.	.	.	.	.
=2-	=2-	=2-	=2-	=2-	=2-	=2-	=2-	=2	=2-	=2-	=2-	=2-	=2-	=2-	=2-
!	!	!	!	!	!	!	!	!	!	!	!	!	!	!LO:TX:t=P:problem=kreska pseudotaktowa	!
00r	.	00r	.	00r	.	00r	.	0E	San-	.	.	2r	.	1e	San-
.	.	.	.	.	.	.	.	.	.	4B\	.	1e	San-	.	.
.	.	.	.	.	.	.	.	.	.	4A\	.	.	.	.	.
!	!	!	!	!	!	!	!	!	!	!	!	!	!	!LO:TX:t=P:problem=kreska pseudotaktowa	!
.	.	.	.	.	.	.	.	.	.	1B	.	.	.	1g	-ctus
!	!	!	!	!	!	!	!	!	!	!	!	!LO:TX:t=P:problem=kreska pseudotaktowa	!	!	!
.	.	.	.	.	.	.	.	.	.	.	.	2e\	-ctus	.	.
=3-	=3-	=3-	=3-	=3-	=3-	=3-	=3-	=3-	=3-	=3-	=3-	=3	=3-	=3	=3-
!	!	!	!	!	!	!	!	!LO:TX:t=P:problem=kreska pseudotaktowa	!	!LO:TX:t=P:problem=kreska pseudotaktowa	!	!	!	!	!
.	.	.	.	.	.	.	.	0F	-ctus	0A	-ctus	2d\	San-	1a	.
*	*	*	*	*	*	*	*	*	*Xij	*	*Xij	*	*	*	*ij
.	.	.	.	.	.	.	.	.	.	.	.	4c/	.	.	.
!	!	!	!	!	!	!	!	!	!	!	!	!LO:TX:t=P:problem=kreska pseudotaktowa	!	!	!
.	.	.	.	.	.	.	.	.	.	.	.	4B/	.	.	.
.	.	.	.	.	.	.	.	.	.	.	.	4A/	.	1.cc	San-
.	.	.	.	.	.	.	.	.	.	.	.	4B/	.	.	.
.	.	.	.	.	.	.	.	.	.	.	.	4c\	.	.	.
!	!	!	!	!	!	!	!	!	!	!	!	!LO:TX:t=P:problem=kreska pseudotaktowa	!	!	!
.	.	.	.	.	.	.	.	.	.	.	.	4d\	.	.	.
!	!	!	!	!	!	!	!	!	!	!LO:LB:g=original	!	!	!	!	!
=4-	=4-	=4-	=4-	=4-	=4-	=4-	=4-	=4	=4-	=4	=4-	=4	=4-	=4-	=4-
!	!	!LO:TX:t=P:problem=kreska pseudotaktowa	!	!	!	!LO:TX:t=P:problem=kreska pseudotaktowa	!	!	!	!	!	!	!	!	!
0r	.	0r	.	0r	.	00r	.	4C\	San-	2r	.	4e\	.	.	.
.	.	.	.	.	.	.	.	4D\	.	.	.	4f\	.	.	.
.	.	.	.	.	.	.	.	4E\	.	2.e\	San-	2.g\	.	4b\	.
!	!	!	!	!	!	!	!	!	!	!	!	!	!	!LO:TX:t=P:problem=kreska pseudotaktowa	!
.	.	.	.	.	.	.	.	4F\	.	.	.	.	.	4a\	.
.	.	.	.	.	.	.	.	2G\	.	.	.	.	.	2b\	-ctus
.	.	.	.	.	.	.	.	.	.	4d\	.	4f\	.	.	.
!	!	!	!	!	!	!	!	!LO:TX:t=P:problem=kreska pseudotaktowa	!	!LO:TX:t=P:problem=kreska pseudotaktowa	!	!	!	!	!
.	.	.	.	.	.	.	.	2A\	.	2c\	.	4e\	.	1a\	San-
!	!	!	!	!	!	!	!	!	!	!	!	!LO:TX:t=P:problem=kreska pseudotaktowa	!	!	!
.	.	.	.	.	.	.	.	.	.	.	.	4d\	.	.	.
!	!	!	!	!	!	!	!	!LO:LB:g=original	!	!	!	!	!	!	!
=5-	=5-	=5-	=5-	=5-	=5-	=5-	=5-	=5	=5-	=5	=5-	=5	=5-	=5-	=5-
!LO:TX:t=P:problem=kreska pseudotaktowa	!	!	!	!LO:TX:t=P:problem=kreska pseudotaktowa	!	!	!	!	!	!	!	!	!	!	!
1r	.	2r	.	1r	.	.	.	1E	.	1B	.	1e	.	.	.
.	.	2.e\	San-	.	.	.	.	.	.	.	.	.	.	2g#X\	.
!	!	!	!	!	!	!	!	!LO:TX:t=P:problem=kreska pseudotaktowa	!	!LO:TX:t=P:problem=kreska pseudotaktowa	!	!LO:TX:t=P:problem=kreska pseudotaktowa	!	!LO:TX:t=P:problem=kreska pseudotaktowa	!
2r	.	.	.	1A	San-	.	.	1AA	-ctus	1A	-ctus	1e	-ctus	1a	-ctus
.	.	4d\	-ctus	.	.	.	.	.	.	.	.	.	.	.	.
1A\	San-	4c\	.	.	.	.	.	.	.	.	.	.	.	.	.
!	!	!LO:TX:t=P:problem=kreska pseudotaktowa	!	!	!	!	!	!	!	!	!	!	!	!	!
.	.	4B\	.	.	.	.	.	.	.	.	.	.	.	.	.
=6-	=6-	=6	=6-	=6-	=6-	=6-	=6-	=6	=6-	=6	=6-	=6	=6-	=6	=6-
*	*	*	*ij	*	*	*	*	*	*	*	*	*	*	*	*
!	!	!	!	!	!	!LO:TX:t=P:problem=kreska pseudotaktowa	!	!	!	!	!	!	!	!	!
!	!	!	!	!LO:TX:t=P:problem=kreska pseudotaktowa	!	!	!	!	!	!	!	!	!	!	!
.	.	4A\	San-	1c	.	1e	San-	00r	.	00r	.	00r	.	00r	.
.	.	4B\	.	.	.	.	.	.	.	.	.	.	.	.	.
!LO:TX:t=P:problem=kreska pseudotaktowa	!	!	!	!	!	!	!	!	!	!	!	!	!	!	!
2A\	-ctus	4c\	.	.	.	.	.	.	.	.	.	.	.	.	.
.	.	4A\	.	.	.	.	.	.	.	.	.	.	.	.	.
*	*ij	*	*	*	*	*	*	*	*	*	*	*	*	*	*
2G\	San-	2B\	.	1d	-ctus	2g/	.	.	.	.	.	.	.	.	.
!	!	!LO:TX:t=P:problem=kreska pseudotaktowa	!	!	!	!	!	!	!	!	!	!	!	!	!
4F\	.	2c\	.	.	.	2ryy	.	.	.	.	.	.	.	.	.
!LO:TX:t=P:problem=kreska pseudotaktowa	!	!	!	!	!	!	!	!	!	!	!	!	!	!	!
4E\	.	.	.	.	.	.	.	.	.	.	.	.	.	.	.
=7	=7-	=7	=7-	=7-	=7-	=7-	=7-	=7-	=7-	=7-	=7-	=7-	=7-	=7-	=7-
*	*	*	*	*	*ij	*	*	*	*	*	*	*	*	*	*
4D\	.	1d	-ctus	1.f	San-	2ryy	.	.	.	.	.	.	.	.	.
4E\	.	.	.	.	.	.	.	.	.	.	.	.	.	.	.
4F\	-ctus	.	.	.	.	1a	.	.	.	.	.	.	.	.	.
!LO:TX:t=P:problem=kreska pseudotaktowa	!	!	!	!	!	!	!	!	!	!	!	!	!	!	!
4G\	.	.	.	.	.	.	.	.	.	.	.	.	.	.	.
!	!	!LO:TX:t=P:problem=kreska pseudotaktowa	!	!	!	!	!	!	!	!	!	!	!	!	!
0A	San-	0c	San-	.	.	.	.	.	.	.	.	.	.	.	.
.	.	.	.	4e\	.	1a\	-ctus	.	.	.	.	.	.	.	.
!	!	!	!	!LO:TX:t=P:problem=kreska pseudotaktowa	!	!	!	!	!	!	!	!	!	!	!
.	.	.	.	4d\	.	.	.	.	.	.	.	.	.	.	.
=8-	=8-	=8	=8-	=8	=8-	=8-	=8-	=8-	=8-	=8-	=8-	=8-	=8-	=8-	=8-
!	!	!	!	!	!	!	!	!LO:TX:t=P:problem=kreska pseudotaktowa	!	!	!	!	!	!	!
.	.	.	.	2e\	.	.	.	1r	.	0r	.	1r	.	0r	.
*	*	*	*	*	*	*	*ij	*	*	*	*	*	*	*	*
.	.	.	.	2f#X\	.	1cc	San-	.	.	.	.	.	.	.	.
*	*	*	*	*	*	*	*	*	*	*	*	*	*ij	*	*
!LO:TX:t=P:problem=kreska pseudotaktowa	!	!	!	!	!	!	!	!	!	!	!	!	!	!	!
1G	.	1d	.	2g\	.	.	.	2r	.	.	.	2.g\	San-	.	.
!	!	!	!	!LO:TX:t=P:problem=kreska pseudotaktowa	!	!LO:TX:t=P:problem=kreska pseudotaktowa	!	!	!	!	!	!	!	!	!
.	.	.	.	2d\	.	2b\	.	2.G\	San-	.	.	.	.	.	.
!	!	!	!	!	!	!	!	!	!	!	!	!LO:TX:t=P:problem=kreska pseudotaktowa	!	!	!
.	.	.	.	.	.	.	.	.	.	.	.	4f\	.	.	.
=9	=9-	=9-	=9-	=9	=9-	=9	=9-	=9-	=9-	=9-	=9-	=9	=9-	=9-	=9-
*	*	*	*	*	*	*	*	*	*	*	*ij	*	*	*	*
0C	-ctus	2c\	.	1e	-ctus	2cc\	.	.	.	2.C/	San-	4e\	.	2r	.
.	.	.	.	.	.	.	.	4F\	.	.	.	4d\	.	.	.
.	.	1G	-ctus	.	.	2.ee\	.	4E\	.	.	.	4c/	.	2.cc\	San-
!	!	!	!	!	!	!	!	!LO:TX:t=P:problem=kreska pseudotaktowa	!	!LO:TX:t=P:problem=kreska pseudotaktowa	!	!	!	!	!
.	.	.	.	.	.	.	.	4D\	.	4D/	.	4B/	.	.	.
.	.	.	.	0g	San-	.	.	1C	.	4E/	.	2c/	.	.	.
.	.	.	.	.	.	4dd\	.	.	.	4F/	.	.	.	8b\L	.
.	.	.	.	.	.	.	.	.	.	.	.	.	.	8a\J	.
!	!	!LO:TX:t=P:problem=kreska pseudotaktowa	!	!	!	!LO:TX:t=P:problem=kreska pseudotaktowa	!	!	!	!	!	!LO:TX:t=P:problem=kreska pseudotaktowa	!	!	!
.	.	2c\	San-	.	.	2cc\	.	.	.	1G/	.	2e\	.	4g\	.
!	!	!	!	!	!	!	!	!	!	!	!	!	!	!LO:TX:t=P:problem=kreska pseudotaktowa	!
.	.	.	.	.	.	.	.	.	.	.	.	.	.	4a\	.
=10-	=10-	=10	=10-	=10-	=10-	=10	=10-	=10-	=10-	=10-	=10-	=10	=10-	=10	=10-
*lig	*	*	*	*	*	*	*	*	*	*	*	*	*	*	*
!	!	!	!	!	!	!	!	!LO:TX:t=P:problem=kreska pseudotaktowa	!	!	!	!	!	!	!
1G	San-	2B\	.	.	.	1dd	-ctus	1GG	.	.	.	1.d	.	1b	.
!	!	!	!	!	!	!	!	!	!	!LO:TX:t=P:problem=kreska pseudotaktowa	!	!	!	!	!
.	.	2G/	.	.	.	.	.	.	.	2C/	-ctus	.	.	.	.
!	!	!	!	!LO:TX:t=P:problem=kreska pseudotaktowa	!	!LO:TX:t=P:problem=kreska pseudotaktowa	!	!	!	!	!	!	!	!LO:TX:t=P:problem=kreska pseudotaktowa	!
1D	.	1A	.	1f	.	1dd	San-	1D	.	2.F/	San-	.	.	0a	-ctus
!	!	!	!	!	!	!	!	!	!	!	!	!LO:TX:t=P:problem=kreska pseudotaktowa	!	!	!
.	.	.	.	.	.	.	.	.	.	.	.	2A/	.	.	.
.	.	.	.	.	.	.	.	.	.	8E/L	.	.	.	.	.
.	.	.	.	.	.	.	.	.	.	8D/J	.	.	.	.	.
*Xlig	*	*	*	*	*	*	*	*	*	*	*	*	*	*	*Xij
=11-	=11-	=11-	=11-	=11	=11-	=11	=11-	=11-	=11-	=11-	=11-	=11	=11-	=11	=11-
*lig	*	*	*	*	*	*	*	*	*	*	*	*	*	*	*
!	!	!LO:TX:t=P:problem=kreska pseudotaktowa	!	!	!	!	!	!LO:TX:t=P:problem=kreska pseudotaktowa	!	!	!	!LO:TX:t=P:problem=kreska pseudotaktowa	!	!	!
1A	.	1c	-ctus	4e\	-ctus	4cc\	.	1AA	-ctus	1E	-ctus	1A	-ctus	.	.
*	*	*	*	*	*	*	*	*	*	*	*Xij	*	*Xij	*	*
.	.	.	.	4d\	.	4a\	.	.	.	.	.	.	.	.	.
.	.	.	.	4e\	.	1cc	.	.	.	.	.	.	.	.	.
.	.	.	.	4f\	.	.	.	.	.	.	.	.	.	.	.
!	!	!	!	!	!	!	!	!	!	!LO:TX:t=P:problem=kreska pseudotaktowa	!	!	!	!	!
1G	.	1d	San-	1g	San-	.	.	1r	.	1r	.	1r	.	1r	.
.	.	.	.	.	.	2b\	.	.	.	.	.	.	.	.	.
*Xlig	*	*	*	*	*	*	*	*	*	*	*	*	*	*	*
=12-	=12-	=12-	=12-	=12-	=12-	=12-	=12-	=12-	=12-	=12	=12-	=12-	=12-	=12-	=12-
!	!	!LO:TX:t=P:problem=kreska pseudotaktowa	!	!LO:TX:t=P:problem=kreska pseudotaktowa	!	!LO:TX:t=P:problem=kreska pseudotaktowa	!	!	!	!	!	!	!	!	!
1C	-ctus	1c	-ctus	1e	-ctus	1cc	-ctus/	2r	.	2r	.	2r	.	2r	.
*	*Xij	*	*Xij	*	*Xij	*	*Xij	*	*	*	*	*	*	*	*
.	.	.	.	.	.	.	.	2.C/	Do-	2.c\	Do-	2.e\	Do-	2.g/	Do-
00r	.	00r	.	00r	.	00r	.	.	.	.	.	.	.	.	.
.	.	.	.	.	.	.	.	4C/	-mi-	4c\	-mi-	4e\	-mi-	4g/	-mi-
!	!	!	!	!	!	!	!	!	!	!LO:TX:t=P:problem=kreska pseudotaktowa	!	!LO:TX:t=P:problem=kreska pseudotaktowa	!	!LO:TX:t=P:problem=kreska pseudotaktowa	!
!	!	!	!	!	!	!	!	!	!	!	!	!LO:LB:g=original	!	!	!
.	.	.	.	.	.	.	.	2C/	-nus	2c\	-nus	2e\	-nus	2g/	-nus
=13-	=13-	=13-	=13-	=13-	=13-	=13-	=13-	=13-	=13-	=13	=13-	=13	=13-	=13	=13-
.	.	.	.	.	.	.	.	2G\	De-	2B\	De-	2d\	De-	2g/	De-
!	!	!	!	!	!	!	!	!LO:TX:t=P:problem=kreska pseudotaktowa	!	!	!	!	!	!LO:TX:t=P:problem=kreska pseudotaktowa	!
.	.	.	.	.	.	.	.	2E\	.	1c	-us	2e\	-us	2g/	-us
!	!	!	!	!	!	!	!	!	!	!	!	!	!	!LO:LB:g=original	!
*	*	*	*	*	*	*	*	*	*	*	*	*lig	*	*	*
.	.	.	.	.	.	.	.	2F\	-us	.	.	1d	Sab-	2a\	Sa-
.	.	.	.	.	.	.	.	2G\	.	2.B\	Sa-	.	.	4g/	.
.	.	.	.	.	.	.	.	.	.	.	.	.	.	4f/	.
=14-	=14-	=14-	=14-	=14-	=14-	=14-	=14-	=14-	=14-	=14-	=14-	=14-	=14-	=14-	=14-
*	*	*	*	*	*	*	*	*lig	*	*	*	*col	*	*	*
.	.	.	.	.	.	.	.	1A	ſab-	.	.	2.c\	.	1.e	.
.	.	.	.	.	.	.	.	.	.	4A\	.	.	.	.	.
.	.	.	.	.	.	.	.	.	.	1A	-ba-	.	.	.	.
*	*	*	*	*	*	*	*	*	*	*	*	*Xlig	*	*	*
.	.	.	.	.	.	.	.	.	.	.	.	8B/L	.	.	.
.	.	.	.	.	.	.	.	.	.	.	.	8A/J	.	.	.
*	*	*	*	*	*	*	*	*col	*	*	*	*Xcol	*	*	*
!LO:TX:t=P:problem=kreska pseudotaktowa	!	!LO:TX:t=P:problem=kreska pseudotaktowa	!	!	!	!	!	!	!	!	!	!LO:TX:t=P:problem=kreska pseudotaktowa	!	!	!
1r	.	1r	.	1r	.	2r	.	2.E\	.	.	.	2.B/	-ba-	.	.
!	!	!	!	!	!	!LO:TX:t=P:problem=kreska pseudotaktowa	!	!	!	!	!	!	!	!	!
.	.	.	.	.	.	2ee\	Ple-	.	.	2G#X/	.	.	.	2e/	-ba-
*	*	*	*	*	*	*	*	*Xlig	*	*	*	*	*	*	*
.	.	.	.	.	.	.	.	4E\	-ba-	.	.	4B/	-oth	.	.
*	*	*	*	*	*	*	*	*Xcol	*	*	*	*	*	*	*
=15-	=15-	=15-	=15-	=15-	=15-	=15	=15-	=15-	=15-	=15-	=15-	=15-	=15-	=15-	=15-
!	!	!	!	!LO:TX:t=P:problem=kreska pseudotaktowa	!	!	!	!LO:TX:t=P:problem=kreska pseudotaktowa	!	!LO:TX:t=P:problem=kreska pseudotaktowa	!	!LO:TX:t=P:problem=kreska pseudotaktowa	!	!LO:TX:t=P:problem=kreska pseudotaktowa	!
1A	Ple-	2r	.	1e	Ple-	1cc	-ni	1AA	-oth	1A	-oth	1c	.	1e	-oth
!	!	!LO:TX:t=P:problem=kreska pseudotaktowa	!	!	!	!	!	!	!	!	!	!	!	!	!
.	.	2A\	Ple-	.	.	.	.	.	.	.	.	.	.	.	.
2G#X\	-ni	2B\	-ni	2e\	-ni	2b\	ſunt	1r	.	1r	.	1r	.	1r	.
!LO:TX:t=P:problem=kreska pseudotaktowa	!	!	!	!LO:TX:t=P:problem=kreska pseudotaktowa	!	!	!	!	!	!	!	!	!	!	!
2A\	ſunt	2.c\	ſunt	2e\	ſunt	4a\	C(ae)-	.	.	.	.	.	.	.	.
!	!	!	!	!	!	!LO:TX:t=P:problem=kreska pseudotaktowa	!	!	!	!	!	!	!	!	!
.	.	.	.	.	.	4b\	.	.	.	.	.	.	.	.	.
=16	=16-	=16-	=16-	=16	=16-	=16	=16-	=16-	=16-	=16-	=16-	=16-	=16-	=16-	=16-
4AA/	C(ae)-	.	.	0e	C(ae)-	4cc\	.	2r	.	1A	Ple-	1c	Ple-	1cc	Ple-
4BB/	.	4B\	.	.	.	4dd\	.	.	.	.	.	.	.	.	.
!	!	!LO:TX:t=P:problem=kreska pseudotaktowa	!	!	!	!	!	!	!	!	!	!	!	!	!
4C/	.	2A\	C(ae)-	.	.	1ee	-li	2A\	Ple-	.	.	.	.	.	.
4AA/	.	.	.	.	.	.	.	.	.	.	.	.	.	.	.
!LO:LB:g=original	!	!	!	!	!	!	!	!	!	!	!	!LO:TX:t=P:problem=kreska pseudotaktowa	!	!	!
2E\	.	2B\	-li	.	.	.	.	2G#X\	-ni	2E/	-ni	1e	-ni	2b\	-ni
*	*	*	*ij	*	*	*	*	*	*	*	*	*	*	*	*
!LO:TX:t=P:problem=kreska pseudotaktowa	!	!LO:LB:g=original	!	!	!	!LO:TX:t=P:problem=kreska pseudotaktowa	!	!LO:TX:t=P:problem=kreska pseudotaktowa	!	!LO:TX:t=P:problem=kreska pseudotaktowa	!	!	!	!LO:TX:t=P:problem=kreska pseudotaktowa	!
2AA/	-li	2A/	Ple-	.	.	2ee\	.	2A\	ſunt	2A/	ſunt	.	.	2cc#X\	ſunt
!	!	!	!	!	!	!	!	!	!	!LO:LB:g=original	!	!	!	!	!
=17	=17-	=17-	=17-	=17-	=17-	=17	=17-	=17	=17-	=17	=17-	=17	=17-	=17	=17-
*	*ij	*	*	*	*	*	*	*	*	*	*	*	*	*	*
!	!	!	!	!LO:TX:t=P:problem=kreska pseudotaktowa	!	!	!	!	!	!	!	!	!	!	!
1D	Ple-	0G	.	1d	-li	2r	.	4D\	C(ae)-	4F/	C(ae)-	1f,	ſunt	1dd	C(ae)-
.	.	.	.	.	.	.	.	4E\	.	4G/	.	.	.	.	.
*	*	*	*	*	*	*	*ij	*	*	*	*	*	*	*	*
!	!	!	!	!	!	!LO:PB:g=original	!	!	!	!	!	!	!	!	!
.	.	.	.	.	.	1g	ple-	4F\	.	1A	.	.	.	.	.
.	.	.	.	.	.	.	.	4D\	.	.	.	.	.	.	.
!	!	!	!	!LO:PB:g=original	!	!	!	!	!	!	!	!	!	!	!
2C#X/	-ni	.	.	2r	.	.	.	2A\	.	.	.	2e\	C(ae)-	2ee\	-li
*	*	*	*	*	*ij	*	*	*	*	*	*	*	*	*	*ij
!LO:TX:t=P:problem=kreska pseudotaktowa	!	!	!	!	!	!LO:TX:t=P:problem=kreska pseudotaktowa	!	!LO:TX:t=P:problem=kreska pseudotaktowa	!	!LO:TX:t=P:problem=kreska pseudotaktowa	!	!LO:TX:t=P:problem=kreska pseudotaktowa	!	!	!
!	!	!	!	!	!	!	!	!LO:LB:g=original	!	!	!	!	!	!	!
2D/	ſunt	.	.	1d\	Ple-	2a\	-ni	2D/	-li	2A/	-li	2f#X\	-li	2.dd\	Ple-
=18	=18-	=18-	=18-	=18-	=18-	=18	=18-	=18	=18-	=18	=18-	=18	=18-	=18-	=18-
*	*	*	*	*	*	*	*	*	*ij	*	*	*	*	*	*
4GG/	C(ae)-	2.G/	.	.	.	4b\	ſunt	1G	Ple-	2r	.	1g	et	.	.
4AA/	.	.	.	.	.	4cc\	.	.	.	.	.	.	.	4cc\	.
*	*	*	*	*	*	*	*	*	*	*	*ij	*	*	*	*
!	!	!	!	!LO:TX:t=P:problem=kreska pseudotaktowa	!	!	!	!	!	!	!	!	!	!LO:TX:t=P:problem=kreska pseudotaktowa	!
4BB/	.	.	.	2d\	-ni	1dd	.	.	.	2G/	Ple-	.	.	2b\	.
!	!	!LO:TX:t=P:problem=kreska pseudotaktowa	!	!	!	!	!	!	!	!	!	!	!	!	!
4GG/	.	4B\	.	.	.	.	.	.	.	.	.	.	.	.	.
2D/	.	2A\	.	1d	ſunt	.	.	2F#X\	-ni	2D/	-ni	2a\	.	2dd\	.
!LO:TX:t=P:problem=kreska pseudotaktowa	!	!	!	!	!	!	!	!LO:TX:t=P:problem=kreska pseudotaktowa	!	!LO:TX:t=P:problem=kreska pseudotaktowa	!	!	!	!	!
2GG/	-li	2B\	.	.	.	2dd\	C(ae)-	2G\	ſunt	2G/	ſunt	4g\	.	2b\	.
!	!	!	!	!	!	!	!	!	!	!	!	!LO:TX:t=P:problem=kreska pseudotaktowa	!	!	!
.	.	.	.	.	.	.	.	.	.	.	.	4f\	.	.	.
=19	=19-	=19-	=19-	=19-	=19-	=19-	=19-	=19	=19-	=19	=19-	=19	=19-	=19-	=19-
!	!	!	!	!LO:TX:t=P:problem=kreska pseudotaktowa	!	!LO:TX:t=P:problem=kreska pseudotaktowa	!	!	!	!	!	!	!	!LO:TX:t=P:problem=kreska pseudotaktowa	!
1C	Ple-	0G	-ni	1c	C(ae)-	1ee	-li	4C\	C(ae)-	4E/	C(ae)-	1g	ter-	1cc	.
*	*	*	*	*	*	*	*Xij	*	*	*	*	*	*	*	*
.	.	.	.	.	.	.	.	4D\	.	4F/	.	.	.	.	.
.	.	.	.	.	.	.	.	4E\	.	4G/	.	.	.	.	.
!	!	!	!	!	!	!	!	!	!	!LO:TX:t=P:problem=kreska pseudotaktowa	!	!	!	!	!
.	.	.	.	.	.	.	.	4C\	.	4A/	.	.	.	.	.
!	!	!	!	!	!	!	!	!	!	!	!	!LO:TX:t=P:problem=kreska pseudotaktowa	!	!	!
2BB/	-ni	.	.	2d\	.	2r	.	2G\	.	2B\	.	1g	-ra	2dd\	.
!LO:TX:t=P:problem=kreska pseudotaktowa	!	!	!	!	!	!LO:TX:t=P:problem=kreska pseudotaktowa	!	!LO:TX:t=P:problem=kreska pseudotaktowa	!	!	!	!	!	!	!
2C/	ſunt	.	.	2c\	.	2cc\	ſunt	2C/	-li	4G/	-li	.	.	2ee\	.
.	.	.	.	.	.	.	.	.	.	2c\	Ple-	.	.	.	.
=20	=20-	=20-	=20-	=20-	=20-	=20	=20-	=20	=20-	=20-	=20-	=20	=20-	=20-	=20-
*	*	*	*	*	*	*	*	*	*	*	*	*	*ij	*	*
!	!	!LO:TX:t=P:problem=kreska pseudotaktowa	!	!LO:TX:t=P:problem=kreska pseudotaktowa	!	!	!	!	!	!	!	!	!	!	!
4FF/	C(ae)-	1A	ſunt	0c	-li	4a\	C(ae)-	2r	.	.	.	1f	Ple-	1cc	-ni
*	*	*	*	*	*Xij	*	*	*	*	*	*	*	*	*	*
4GG/	.	.	.	.	.	4b\	.	.	.	4B\	-ni	.	.	.	.
!	!	!	!	!	!	!	!	!	!	!LO:TX:t=P:problem=kreska pseudotaktowa	!	!	!	!	!
4AA/	.	.	.	.	.	4cc\	.	2F\	ple-	2A\	ſunt	.	.	.	.
!	!	!	!	!	!	!LO:TX:t=P:problem=kreska pseudotaktowa	!	!	!	!	!	!	!	!	!
4FF/	.	.	.	.	.	4dd\	.	.	.	.	.	.	.	.	.
!	!	!	!	!	!	!	!	!	!	!	!	!	!	!LO:TX:t=P:problem=kreska pseudotaktowa	!
2C/	.	2G/	C(ae)-	.	.	2ee\	-li	2E\	-ni	2c\	C(ae)-	2g\	-ni	1cc	sunt
*	*	*	*	*	*	*	*ij	*	*	*	*	*	*	*	*
!LO:TX:t=P:problem=kreska pseudotaktowa	!	!	!	!	!	!	!	!LO:TX:t=P:problem=kreska pseudotaktowa	!	!LO:TX:t=P:problem=kreska pseudotaktowa	!	!	!	!	!
2FF/	-li	2A/	.	.	.	2.a\	C(ae)-	2F\	ſunt	2A/	-li	4f\	.	.	.
*	*Xij	*	*	*	*	*	*	*	*	*	*Xij	*	*	*	*
!	!	!	!	!	!	!	!	!	!	!	!	!LO:TX:t=P:problem=kreska pseudotaktowa	!	!	!
.	.	.	.	.	.	.	.	.	.	.	.	4e\	.	.	.
=21	=21-	=21-	=21-	=21	=21-	=21-	=21-	=21	=21-	=21	=21-	=21	=21-	=21	=21-
!	!	!LO:TX:t=P:problem=kreska pseudotaktowa	!	!	!	!	!	!	!	!	!	!	!	!	!
2r	.	1F	-li	2r	.	.	.	4D\	C(ae)-	2A/	Ple-	1f	ſunt	1dd	C(ae)-
*	*	*	*Xij	*	*	*	*	*	*	*	*	*	*	*	*
.	.	.	.	.	.	4g\	.	4E\	.	.	.	.	.	.	.
2D/	et	.	.	2A/	ſunt	4a\	.	4F\	.	4D/	-ni	.	.	.	.
!	!	!	!	!	!	!LO:TX:t=P:problem=kreska pseudotaktowa	!	!	!	!LO:TX:t=P:problem=kreska pseudotaktowa	!	!	!	!	!
.	.	.	.	.	.	4b\	.	4D\	.	4d\	ſunt	.	.	.	.
!	!	!	!	!	!	!	!	!LO:TX:t=P:problem=kreska pseudotaktowa	!	!	!	!	!	!	!
4AA/	ter-	2r	.	2A/	C(ae)-	2cc\	-li	1A	.	2c\	C(ae)-	2e\	.	2ee\	-li
*	*	*	*	*	*	*	*Xij	*	*	*	*	*	*	*	*Xij
4BB/	.	.	.	.	.	.	.	.	.	.	.	.	.	.	.
!	!	!	!	!	!	!	!	!	!	!	!	!LO:TX:t=P:problem=kreska pseudotaktowa	!	!	!
4C/	.	2.E/	et	4A/	-li	1a\	et	.	.	1e\	-li	2A/	C(ae)-	2cc\	et
!LO:TX:t=P:problem=kreska pseudotaktowa	!	!	!	!LO:TX:t=P:problem=kreska pseudotaktowa	!	!	!	!	!	!	!	!	!	!	!
4AA/	.	.	.	4c/	et	.	.	.	.	.	.	.	.	.	.
=22	=22-	=22-	=22-	=22	=22-	=22-	=22-	=22	=22-	=22-	=22-	=22	=22-	=22-	=22-
*lig	*	*	*	*	*	*	*	*	*	*	*	*	*	*	*
!	!	!	!	!	!	!	!	!	!	!	!	!	!	!LO:TX:t=P:problem=kreska pseudotaktowa	!
1E	.	.	.	0e	ter-	.	.	2E\	-li	.	.	2B/	-li	0b	ter-
*	*	*	*	*	*	*	*	*	*Xij	*	*	*	*	*	*
.	.	4F#X/	.	.	.	.	.	.	.	.	.	.	.	.	.
!	!	!	!	!	!	!	!	!	!	!LO:TX:t=P:problem=kreska pseudotaktowa	!	!LO:TX:t=P:problem=kreska pseudotaktowa	!	!	!
.	.	4G#X/	.	.	.	4g#X/	ter-	2E\	et	2B\	et	2e\	et	.	.
!	!	!LO:TX:t=P:problem=kreska pseudotaktowa	!	!	!	!LO:TX:t=P:problem=kreska pseudotaktowa	!	!	!	!	!	!	!	!	!
.	.	4A/	.	.	.	4f#X/	.	.	.	.	.	.	.	.	.
!	!	!	!	!	!	!	!	!LO:TX:t=P:problem=kreska pseudotaktowa	!	!	!	!	!	!	!
1EE	.	2B\	ter-	.	.	1g#	.	1E	ter-	1B	ter-	1e	ter-	.	.
.	.	2E/	.	.	.	.	.	.	.	.	.	.	.	.	.
*Xlig	*	*	*	*	*	*	*	*	*	*	*	*	*	*	*
=23-	=23-	=23-	=23-	=23-	=23-	=23-	=23-	=23	=23-	=23-	=23-	=23-	=23-	=23	=23-
!LO:TX:t=P:problem=kreska pseudotaktowa	!	!LO:TX:t=P:problem=kreska pseudotaktowa	!	!LO:TX:t=P:problem=kreska pseudotaktowa	!	!LO:TX:t=P:problem=kreska pseudotaktowa	!	!	!	!	!	!	!	!	!
1AA	-ra	1E	-ra	1c	-ra	1a	-ra	2AA/	-ra	2A\	-ra	2.e\	-ra	2cc,\	-ra
*	*	*	*	*	*	*	*	*	*	*	*	*	*Xij	*	*
.	.	.	.	.	.	.	.	2.A\	glo-	4r	.	.	.	2.cc\	glo-
.	.	.	.	.	.	.	.	.	.	2e\	glo-	2a\	glo-	.	.
!LO:TX:t=P:problem=kreska pseudotaktowa	!	!	!	!	!	!	!	!	!	!	!	!	!	!	!
!LO:PB:g=original	!	!	!	!	!	!	!	!	!	!	!	!	!	!	!
0r	.	0r	.	0r	.	0r	.	.	.	.	.	.	.	.	.
.	.	.	.	.	.	.	.	4A\	-ri-	4e\	-ri-	4a\	-ri-	4cc\	-ri-
!	!	!	!	!	!	!	!	!LO:TX:t=P:problem=kreska pseudotaktowa	!	!	!	!LO:TX:t=P:problem=kreska pseudotaktowa	!	!LO:TX:t=P:problem=kreska pseudotaktowa	!
!	!	!	!	!	!	!	!	!	!	!	!	!LO:LB:g=original	!	!	!
.	.	.	.	.	.	.	.	2E\	-a	2e\	-a	2g\	-a	2b\	-a
=24-	=24-	=24-	=24-	=24-	=24-	=24-	=24-	=24	=24-	=24-	=24-	=24	=24-	=24	=24-
.	.	.	.	.	.	.	.	1F	tu-	1c	tu-	1f	tu-	1a	tu-
!	!	!	!	!	!	!	!	!LO:TX:t=P:problem=kreska pseudotaktowa	!	!LO:TX:t=P:problem=kreska pseudotaktowa	!	!LO:TX:t=P:problem=kreska pseudotaktowa	!	!LO:TX:t=P:problem=kreska pseudotaktowa	!
2r	.	2r	.	4r	.	2r	.	1C	-a	1c	-a	1e	-a	1g	-a
.	.	.	.	4c/	o-	.	.	.	.	.	.	.	.	.	.
!LO:TX:t=P:problem=kreska pseudotaktowa	!	!LO:TX:t=P:problem=kreska pseudotaktowa	!	!	!	!	!	!	!	!	!	!	!	!	!
2C/	o-	2c\	o-	1g\	-ſan-	2cc\	O-	.	.	.	.	.	.	.	.
!	!	!	!	!	!	!	!	!	!	!LO:LB:g=original	!	!	!	!LO:LB:g=original	!
=25	=25-	=25	=25-	=25-	=25-	=25-	=25-	=25	=25-	=25	=25-	=25	=25-	=25	=25-
2c\	-ſan-	2e\	-ſan-	.	.	2cc\	-ſan-	0r	.	0r	.	0r	.	0r	.
!LO:TX:t=P:problem=kreska pseudotaktowa	!	!	!	!LO:TX:t=P:problem=kreska pseudotaktowa	!	!LO:TX:t=P:problem=kreska pseudotaktowa	!	!	!	!	!	!	!	!	!
2F\	-na	2c\	-na	2f\	-na	2a\	-na	.	.	.	.	.	.	.	.
4G\	in	4B\	in	4d\	in	4g\	in	.	.	.	.	.	.	.	.
4B-X\	ex-	4d\	ex-	4d\	ex-	4g\	ex-	.	.	.	.	.	.	.	.
2A\	-cel-	2c#X\	-cel-	2e\	-cel-	2a\	-cel-	.	.	.	.	.	.	.	.
=26-	=26-	=26-	=26-	=26-	=26-	=26-	=26-	=26-	=26-	=26-	=26-	=26-	=26-	=26-	=26-
!LO:TX:t=P:problem=kreska pseudotaktowa	!	!LO:TX:t=P:problem=kreska pseudotaktowa	!	!LO:TX:t=P:problem=kreska pseudotaktowa	!	!LO:TX:t=P:problem=kreska pseudotaktowa	!	!	!	!	!	!	!	!	!
1D	-ſis	1d	-ſis	1f#X	-ſis	1a	-ſis	2r	.	4r	.	2r	.	2r	.
.	.	.	.	.	.	.	.	.	.	4A/	O-	.	.	.	.
!	!	!	!	!	!	!	!	!LO:TX:t=P:problem=kreska pseudotaktowa	!	!	!	!LO:TX:t=P:problem=kreska pseudotaktowa	!	!LO:TX:t=P:problem=kreska pseudotaktowa	!
.	.	.	.	.	.	.	.	2D/	O-	1d	-ſan-	2f#X\	o-	2a\	o-
!	!	!	!	!	!	!LO:LB:g=original	!	!	!	!	!	!	!	!	!
!	!	!	!	!	!	!LO:TX:t=P:problem=kreska pseudotaktowa	!	!	!	!	!	!	!	!	!
1r	.	1r	.	1r	.	1r	.	2G\	-ſan-	.	.	2g\	-ſan-	2b\	-ſan-
!	!	!	!	!	!	!	!	!	!	!LO:TX:t=P:problem=kreska pseudotaktowa	!	!LO:TX:t=P:problem=kreska pseudotaktowa	!	!	!
.	.	.	.	.	.	.	.	2C/	-na	2e\	-na	2g\	-na	2cc\	-na
=27-	=27-	=27-	=27-	=27-	=27-	=27	=27-	=27-	=27-	=27	=27-	=27	=27-	=27-	=27-
2r	.	2r	.	2r	.	2r	.	4D/	in	4d\	in	4f\	in	4a\	in
.	.	.	.	.	.	.	.	4F\	ex-	4A\	ex-	4d\	ex-	4a\	ex-
*	*ij	*	*ij	*	*ij	*	*ij	*	*	*	*	*	*	*	*
!LO:TX:t=P:problem=kreska pseudotaktowa	!	!LO:TX:t=P:problem=kreska pseudotaktowa	!	!	!	!	!	!LO:TX:t=P:problem=kreska pseudotaktowa	!	!LO:TX:t=P:problem=kreska pseudotaktowa	!	!LO:TX:t=P:problem=kreska pseudotaktowa	!	!LO:TX:t=P:problem=kreska pseudotaktowa	!
!	!	!	!	!	!	!LO:N:vis=2	!	!	!	!	!	!	!	!	!
2E\	o-	2B\	o-	2.e\	o-	4b\	o-	2E\	-cel-	2B\	-cel-	2e\	-cel-	2g#X\	-cel-
.	.	.	.	.	.	4ryy	.	.	.	.	.	.	.	.	.
!	!	!LO:LB:g=original	!	!	!	!	!	!	!	!	!	!	!	!	!
2A\	-ſan-	4.c\	-ſan-	.	.	4.ee\	-ſan-	2AA/	-ſis	2A/	-ſis	2e\	-ſis	2a\	-ſis
.	.	.	.	2a\	-ſan-	.	.	.	.	.	.	.	.	.	.
.	.	8d\	-na	.	.	8dd\	.	.	.	.	.	.	.	.	.
!LO:TX:t=P:problem=kreska pseudotaktowa	!	!	!	!	!	!LO:TX:t=P:problem=kreska pseudotaktowa	!	!LO:TX:t=P:problem=kreska pseudotaktowa	!	!LO:TX:t=P:problem=kreska pseudotaktowa	!	!LO:TX:t=P:problem=kreska pseudotaktowa	!	!LO:TX:t=P:problem=kreska pseudotaktowa	!
!	!	!	!	!	!	!	!	!LO:LB:g=original	!	!	!	!	!	!	!
2E\	-na	4.e\	in	.	.	2cc\	-na	2r	.	2r	.	2r	.	2r	.
!	!	!	!	!LO:TX:t=P:problem=kreska pseudotaktowa	!	!	!	!	!	!	!	!	!	!	!
.	.	.	.	4g\	-na	.	.	.	.	.	.	.	.	.	.
!	!	!LO:TX:t=P:problem=kreska pseudotaktowa	!	!	!	!	!	!	!	!	!	!	!	!	!
.	.	8d\	ex-	.	.	.	.	.	.	.	.	.	.	.	.
!	!	!	!	!LO:LB:g=original	!	!	!	!	!	!	!	!	!	!	!
=28	=28-	=28	=28-	=28	=28-	=28	=28-	=28	=28-	=28	=28-	=28	=28-	=28	=28-
4F\	in	4c\	-cel-	4f\	in	4b\	in	2r	.	2r	.	2r	.	2r	.
4G\	ex-	4B\	.	4d\	ex-	4a\	ex-	.	.	.	.	.	.	.	.
*	*	*	*	*	*	*	*	*	*ij	*	*	*	*	*	*ij
!	!	!LO:TX:t=P:problem=kreska pseudotaktowa	!	!LO:TX:t=P:problem=kreska pseudotaktowa	!	!	!	!	!	!	!	!	!	!LO:TX:t=P:problem=kreska pseudotaktowa	!
2D/	-cel-	2A/	.	2d\	-cel-	2f#X/	-cel-	2D/	O-	4A/	o-	2.d\	o-	2a\	o-
.	.	.	.	.	.	.	.	.	.	2d\	-ſan-	.	.	.	.
2GG/	-ſis	2G/	-ſis	2d\	-ſis	2g/	-ſis	2G\	-ſan-	.	.	.	.	4b\	-ſan-
*	*	*	*Xij	*	*	*	*	*	*	*	*	*	*	*	*
.	.	.	.	.	.	.	.	.	.	2B\	-na	2g\	-ſan-	4dd\	.
!LO:TX:t=P:problem=kreska pseudotaktowa	!	!LO:TX:t=P:problem=kreska pseudotaktowa	!	!LO:TX:t=P:problem=kreska pseudotaktowa	!	!LO:TX:t=P:problem=kreska pseudotaktowa	!	!LO:TX:t=P:problem=kreska pseudotaktowa	!	!	!	!	!	!LO:TX:t=P:problem=kreska pseudotaktowa	!
2r	.	2r	.	2r	.	2r	.	2E\	-na	.	.	.	.	2ee\	-na
!	!	!	!	!	!	!	!	!	!	!	!	!LO:TX:t=P:problem=kreska pseudotaktowa	!	!	!
.	.	.	.	.	.	.	.	.	.	2c\	in	4g\	-na	.	.
=29	=29-	=29	=29-	=29	=29-	=29	=29-	=29	=29-	=29-	=29-	=29	=29-	=29	=29-
1r	.	1r	.	1r	.	1r	.	4F\	in	.	.	4f\	in	4a\	in
.	.	.	.	.	.	.	.	4A\	ex-	4c\	ex-	4e\	.	2cc\	ex-
!	!	!	!	!	!	!	!	!LO:TX:t=P:problem=kreska pseudotaktowa	!	!LO:TX:t=P:problem=kreska pseudotaktowa	!	!	!	!	!
.	.	.	.	.	.	.	.	2G\	-cel-	2d\	-cel-	2g\	ex-	.	.
.	.	.	.	.	.	.	.	.	.	.	.	.	.	4b\	.
*	*	*	*ij	*	*	*	*	*	*	*	*	*	*	*	*
!LO:TX:t=P:problem=kreska pseudotaktowa	!	!	!	!	!	!	!	!	!	!	!	!	!	!	!
1C	o-	1G	O-	2r	.	1ee	o-	1.C	-ſis	2c\	-ſis	2e\	-cel-	1.cc	-cel-
*	*	*	*	*	*	*	*	*	*Xij	*	*	*	*	*	*
!	!	!	!	!LO:TX:t=P:problem=kreska pseudotaktowa	!	!	!	!	!	!LO:TX:t=P:problem=kreska pseudotaktowa	!	!	!	!	!
.	.	.	.	2e\	o-	.	.	.	.	2.c\	in	2g\	-ſis	.	.
=30	=30-	=30-	=30-	=30	=30-	=30-	=30-	=30-	=30-	=30	=30-	=30-	=30-	=30-	=30-
*	*	*	*	*	*	*	*	*	*	*	*	*	*ij	*	*
2C/	-ſan-	2G/	-ſan-	2e\	-ſan-	2ee\	-ſan-	.	.	.	.	1.g	in	.	.
.	.	.	.	.	.	.	.	.	.	4G/	ex-	.	.	.	.
!LO:TX:t=P:problem=kreska pseudotaktowa	!	!LO:TX:t=P:problem=kreska pseudotaktowa	!	!LO:TX:t=P:problem=kreska pseudotaktowa	!	!LO:TX:t=P:problem=kreska pseudotaktowa	!	!LO:TX:t=P:problem=kreska pseudotaktowa	!	!LO:TX:t=P:problem=kreska pseudotaktowa	!	!	!	!LO:TX:t=P:problem=kreska pseudotaktowa	!
2BB/	-na	2G/	-na	2g\	-na	2dd\	-na	2G\	O-	2B\	-cel-	.	.	2dd\	-ſis
*	*	*	*	*	*	*	*	*	*	*	*	*	*	*	*Xij
2C/	in	2G/	in	2.e\	in	2cc\	in	2E\	-ſan-	2.G/	.	.	.	2ee\	O-
2C/	ex-	2E/	ex-	.	.	2cc\	ex-	4C/	-na	.	.	4g\	ex-	4ee\	-ſan-
*	*	*	*	*	*	*	*	*	*ij	*	*	*	*	*	*
!	!	!	!	!	!	!	!	!LO:TX:t=P:problem=kreska pseudotaktowa	!	!LO:TX:t=P:problem=kreska pseudotaktowa	!	!LO:TX:t=P:problem=kreska pseudotaktowa	!	!	!
.	.	.	.	4c\	ex-	.	.	4C/	o-	4A\	-ſis	4g\	-cel-	4ee\	-na
=31-	=31-	=31-	=31-	=31-	=31-	=31-	=31-	=31	=31-	=31	=31-	=31	=31-	=31-	=31-
2GG/	-cel-	2G/	-cel-	4d\	.	2b\	-cel-	2G\	-ſan-	2B\	.	2g\	-ſis	2dd\	o-
*	*	*	*	*	*	*	*	*	*	*	*	*	*Xij	*	*
.	.	.	.	4g\	.	.	.	.	.	.	.	.	.	.	.
!LO:TX:t=P:problem=kreska pseudotaktowa	!	!LO:TX:t=P:problem=kreska pseudotaktowa	!	!LO:TX:t=P:problem=kreska pseudotaktowa	!	!LO:TX:t=P:problem=kreska pseudotaktowa	!	!	!	!	!	!	!	!	!
2C/	-ſis	2G/	-ſis	2e\	-cel-	2cc\	-ſis	4C/	-na	4r	.	4g\	O-	4ee\	-ſan-
!	!	!	!	!	!	!	!	!LO:TX:t=P:problem=kreska pseudotaktowa	!	!LO:TX:t=P:problem=kreska pseudotaktowa	!	!LO:TX:t=P:problem=kreska pseudotaktowa	!	!LO:TX:t=P:problem=kreska pseudotaktowa	!
.	.	.	.	.	.	.	.	4C/	o-	4c\	o-	4g\	-ſan-	4ee\	-na
2C/	o-	2G/	o-	2e\	-ſis	2cc\	o-	2E\	-ſan-	4c\	-ſan-	2g\	-na	2ee\	in
.	.	.	.	.	.	.	.	.	.	4c\	-na	.	.	.	.
!	!	!	!	!	!	!	!	!	!	!	!	!LO:TX:t=P:problem=kreska pseudotaktowa	!	!	!
4.GG/	-ſan-	4.G/	-ſan-	4r	.	4.b\	-ſan-	2G\	-na	4d\	in	2g\	in	2dd\	.
*	*	*	*	*	*	*	*	*	*Xij	*	*	*	*	*	*
!	!	!	!	!	!	!	!	!	!	!LO:TX:t=P:problem=kreska pseudotaktowa	!	!	!	!	!
.	.	.	.	2d\	in	.	.	.	.	4B\	ex-	.	.	.	.
!LO:TX:t=P:problem=kreska pseudotaktowa	!	!LO:TX:t=P:problem=kreska pseudotaktowa	!	!	!	!LO:TX:t=P:problem=kreska pseudotaktowa	!	!	!	!	!	!	!	!	!
8GG/	-na	8G/	-na	.	.	8b\	-na	.	.	.	.	.	.	.	.
=32	=32-	=32	=32-	=32-	=32-	=32	=32-	=32-	=32-	=32	=32-	=32	=32-	=32-	=32-
4D/	in	4A\	in	.	.	4a\	in	4D\	in	8d\L	-cel-	4f\	ex-	4dd\	ex-
.	.	.	.	.	.	.	.	.	.	8A\	.	.	.	.	.
4AA/	ex-	4A\	ex-	4e\	ex-	4a\	ex-	4A\	ex-	8c\	.	4e\	.	4cc\	.
.	.	.	.	.	.	.	.	.	.	8d\J	.	.	.	.	.
!LO:TX:t=P:problem=kreska pseudotaktowa	!	!	!	!LO:TX:t=P:problem=kreska pseudotaktowa	!	!LO:TX:t=P:problem=kreska pseudotaktowa	!	!LO:TX:t=P:problem=kreska pseudotaktowa	!	!	!	!LO:TX:t=P:problem=kreska pseudotaktowa	!	!LO:TX:t=P:problem=kreska pseudotaktowa	!
!	!	!	!	!	!	!	!	!	!	!LO:LB:g=original	!	!	!	!	!
2E\	-cel-	4B\	-cel-	2e\	-cel-	2g#X\	-cel-	2E\	-cel-	4d\	.	2e\	-cel-	2b\	-cel-
!	!	!LO:TX:t=P:problem=kreska pseudotaktowa	!	!	!	!	!	!	!	!	!	!	!	!	!
.	.	4E/	.	.	.	.	.	.	.	4B\	.	.	.	.	.
2AA/	-ſis	2E/	-ſis	2c/	-ſis	2a\	-ſis	2A\	-ſis	2A/	-sis	2e\	-ſis	2cc\	-ſis
*	*	*	*	*	*	*	*	*	*	*	*ij	*	*ij	*	*ij
!LO:TX:t=P:problem=kreska pseudotaktowa	!	!LO:TX:t=P:problem=kreska pseudotaktowa	!	!LO:TX:t=P:problem=kreska pseudotaktowa	!	!LO:TX:t=P:problem=kreska pseudotaktowa	!	!LO:TX:t=P:problem=kreska pseudotaktowa	!	!LO:TX:t=P:problem=kreska pseudotaktowa	!	!LO:TX:t=P:problem=kreska pseudotaktowa	!	!LO:TX:t=P:problem=kreska pseudotaktowa	!
2AA/	o-	2E/	o-	2c/	o-	2a\	o-	2A\	o-	2A/	o-	2e\	o-	2cc\	o-
=33	=33-	=33	=33-	=33	=33-	=33	=33-	=33	=33-	=33	=33-	=33	=33-	=33	=33-
!	!	!	!	!	!	!	!	!	!	!	!	!LO:LB:g=original	!	!	!
4.E\	-ſan-	4.E/	-ſan-	4.B/	-ſan-	4.b\	-ſan-	4.E\	-ſan-	4.G#X/	-ſan-	4.e\	-ſan-	4.ee\	-ſan-
8E\	-na	8E/	-na	8B/	-na	8b\	-na	8E\	-na	8G#/	-na	8e\	-na	8ee\	-na
4E\	in	4E/	in	4B/	in	4b\	in	4E\	in	4G#/	in	4e\	in	4ee\	in
!LO:TX:t=P:problem=kreska pseudotaktowa	!	!	!	!LO:TX:t=P:problem=kreska pseudotaktowa	!	!LO:TX:t=P:problem=kreska pseudotaktowa	!	!	!	!LO:TX:t=P:problem=kreska pseudotaktowa	!	!	!	!	!
4E\	ex-	4E/	ex-	4B/	ex-	4b\	ex-	4E\	ex-	4G#/	ex-	4e\	ex-	4ee\	ex-
*	*	*	*	*	*	*	*	*lig	*	*	*	*	*	*	*
0AA	-cel-	0E	-cel-	1.c	-cel-	0a	-cel-	1A	-cel-	1.A	-cel-	0e	-cel-	0cc	-cel-
=34-	=34-	=34-	=34-	=34-	=34-	=34-	=34-	=34-	=34-	=34-	=34-	=34-	=34-	=34-	=34-
.	.	.	.	.	.	.	.	1AA	.	.	.	.	.	.	.
.	.	.	.	2A/	.	.	.	.	.	2E/	.	.	.	.	.
*	*	*	*	*	*	*	*	*Xlig	*	*	*	*	*	*	*
!LO:N:vis=0	!	!LO:N:vis=0	!	!LO:N:vis=0	!	!LO:N:vis=0	!	!LO:N:vis=0	!	!LO:N:vis=0	!	!LO:N:vis=0	!	!LO:N:vis=	!
1EE	-ſis	1E	-ſis	1B	-ſis	1g#X;	-ſis	1E	-ſis	1G#X;	-ſis	1f;	-ſis	1b;	-ſis
*	*Xij	*	*Xij	*	*Xij	*	*Xij	*	*	*	*Xij	*	*Xij	*	*Xij
==	==	==	==	==	==	==	==	==	==	==	==	==	==	==	==
*-	*-	*-	*-	*-	*-	*-	*-	*-	*-	*-	*-	*-	*-	*-	*-
!!!system-decoration: [(s1,s2,s3,s4)][(s5,s6,s7,s8)]
!!!AIN: 2 alto 2 empty 2 tenor 2 vox
!!!ENC: Kamil Watkowski
!!!END: 2021-08-07
